X:5822
T:Gan Ainm
R:reel
S:
H:
N:Similar to children's Irish song 'Breachain Liom'
D:Milltown Session
Z:Adrian Scahill
M:4/4
L:1/8
K:D
fdd2 Add2|fgaf d2ef|gee2 Bee2|cdec A2ag|\
fdd2 Add2|fgaf dfga|bgaf gfed|cABc d3e:||\
faa2 faa2|fgaf d2ef|gbb2gbb2|gabg efge|\
faa2 faa2|fgaf dfga|bgaf gfed|cABc d3e:||\
